icons/linear-new-symbol-arrow-import-right-square.svg

<svg xmlns="http://www.w3.org/2000/svg" width="32px" height="32px" viewBox="0 0 32 32" version="1.1">
    <title>linear-new-symbol-arrow-import-right-square</title>
    <g id="linear-new-symbol-arrow-import-right-square" stroke-width="1" fill-rule="evenodd">
        <path d="M28,3 C28.5522847,3 29,3.44771525 29,4 L29,28 C29,28.5522847 28.5522847,29 28,29 L4,29 C3.44771525,29 3,28.5522847 3,28 L3,22 L5,22 L5,27 L27,27 L27,5 L5,5 L5,10 L3,10 L3,4 C3,3.44771525 3.44771525,3 4,3 L28,3 Z M14.7071068,9.29289322 L20.7071068,15.2928932 C21.0976311,15.6834175 21.0976311,16.3165825 20.7071068,16.7071068 L14.7071068,22.7071068 C14.3165825,23.0976311 13.6834175,23.0976311 13.2928932,22.7071068 C12.9023689,22.3165825 12.9023689,21.6834175 13.2928932,21.2928932 L17.585,17 L3,17 L3,15 L17.585,15 L13.2928932,10.7071068 C12.9324093,10.3466228 12.9046797,9.77939176 13.2097046,9.38710056 L13.2928932,9.29289322 C13.6834175,8.90236893 14.3165825,8.90236893 14.7071068,9.29289322 Z" id="&#24418;&#29366;" fill-rule="nonzero" />
    </g>
</svg>

<svg xmlns="http://www.w3.org/2000/svg" viewBox="0 0 32 32"><path fill="currentColor" d="M28 3a1 1 0 0 1 1 1v24a1 1 0 0 1-1 1H4a1 1 0 0 1-1-1v-6h2v5h22V5H5v5H3V4a1 1 0 0 1 1-1zM14.707 9.293l6 6a1 1 0 0 1 0 1.414l-6 6a1 1 0 0 1-1.414-1.414L17.585 17H3v-2h14.585l-4.292-4.293a1 1 0 0 1-.083-1.32l.083-.094a1 1 0 0 1 1.414 0"/></svg>
